img/components/checkboxes_designing.svg

<?xml version="1.0" encoding="UTF-8"?>
<svg xmlns="http://www.w3.org/2000/svg" width="332" height="92" viewBox="0 0 332 92">
	<title>
		checkboxes_designing
	</title>
	<g id="Artboard-page" fill="none" fill-rule="evenodd" stroke="none" stroke-width="1">
		<g id="WikimediaUI-components_overview" transform="translate(-5213 -592)">
			<rect width="14720" height="3264" fill="#FFF"/>
			<g id="CHECKBOX-DESKTOP" transform="translate(5038 186)">
				<g id="Checkbox-X" transform="translate(2 69)">
					<g id="Checkbox-/-!default" transform="translate(192 398)">
						<text id="Label" fill="#222" font-family="HelveticaNeue, Helvetica Neue, sans-serif" font-size="16" font-weight="normal">
							<tspan x="32" y="22">Option 2</tspan>
						</text>
						<rect id="checkbox" width="23" height="23" x=".5" y="4.5" fill="#FFF" fill-rule="evenodd" stroke="#72777D" stroke-width="1" rx="2"/>
					</g>
					<g id="Checkbox-/-!default" transform="translate(192 358)">
						<text id="Label" fill="#222" font-family="HelveticaNeue, Helvetica Neue, sans-serif" font-size="16" font-weight="normal">
							<tspan x="32" y="22">Option 1</tspan>
						</text>
						<rect id="checkbox" width="23" height="23" x=".5" y="4.5" fill="#FFF" fill-rule="evenodd" stroke="#72777D" stroke-width="1" rx="2"/>
					</g>
					<g id="_Spec-/-8-sp-(0.5-em)" stroke="#50E3C2" stroke-width="4" transform="translate(216 372)">
						<line id="8-sp-(0.5-em)" x1="0" x2="8" y1="2" y2="2"/>
					</g>
					<g id="_Spec-/-8-sp-(0.5-em)" stroke="#50E3C2" stroke-width="4" transform="translate(216 412)">
						<line id="8-sp-(0.5-em)" x1="0" x2="8" y1="2" y2="2"/>
					</g>
					<g id="_Spec-/-16-sp-(1-em)" stroke="#D0021B" stroke-width="4" transform="rotate(90 -90 296)">
						<line id="16-sp-(1-em)" x1="0" x2="16" y1="2" y2="2"/>
					</g>
					<text id="`vertical-align:-mid" fill="#C70070" font-family="Lato-Regular, Lato, sans-serif" font-size="12" font-weight="normal">
						<tspan x="381" y="379">`vertical-align: middle`</tspan>
					</text>
					<line id="Line-Copy-86" x1="173" x2="375" y1="356.5" y2="356.5" stroke="#50E3C2" stroke-dasharray="1 3" stroke-linecap="square"/>
					<line id="Line-Copy-85" x1="173" x2="375" y1="391.5" y2="391.5" stroke="#50E3C2" stroke-dasharray="1 3" stroke-linecap="square"/>
					<path id="Line" fill="#979797" fill-rule="nonzero" d="M371,392.014282 L371,391.014282 L375,391.014 L375,357 L371,357 L371,356 L380,356 L380,357 L376,357 L376,391.014 L380,391.014282 L380,392.014282 L371,392.014282 Z"/>
				</g>
			</g>
			<text id="Label" fill="#222" font-family="HelveticaNeue, Helvetica Neue, sans-serif" font-size="16" font-weight="normal" transform="translate(5232 591.5)">
				<tspan x="0" y="15">Checkbox group label</tspan>
			</text>
		</g>
	</g>
</svg>

<?xml version="1.0" encoding="UTF-8"?>
<svg xmlns="http://www.w3.org/2000/svg" width="332" height="92" viewBox="0 0 332 92">
	<title>
		checkboxes_designing
	</title>
	<g id="Artboard-page" fill="none" fill-rule="evenodd" stroke="none" stroke-width="1">
		<g id="WikimediaUI-components_overview" transform="translate(-5213 -592)">
			<path fill="#FFF" d="M0 0h14720v3264H0z"/>
			<g id="CHECKBOX-DESKTOP" transform="translate(5038 186)">
				<g id="Checkbox-X" transform="translate(2 69)">
					<g id="Checkbox-/-!default" transform="translate(192 398)">
						<text id="Label" fill="#222" font-family="HelveticaNeue, Helvetica Neue, sans-serif" font-size="16" font-weight="normal">
							<tspan x="32" y="22">Option 2</tspan>
						</text>
						<rect id="checkbox" width="23" height="23" x=".5" y="4.5" fill="#FFF" fill-rule="evenodd" stroke="#72777D" stroke-width="1" rx="2"/>
					</g>
					<g id="Checkbox-/-!default" transform="translate(192 358)">
						<text id="Label" fill="#222" font-family="HelveticaNeue, Helvetica Neue, sans-serif" font-size="16" font-weight="normal">
							<tspan x="32" y="22">Option 1</tspan>
						</text>
						<rect id="checkbox" width="23" height="23" x=".5" y="4.5" fill="#FFF" fill-rule="evenodd" stroke="#72777D" stroke-width="1" rx="2"/>
					</g>
					<g id="_Spec-/-8-sp-(0.5-em)" stroke="#50E3C2" stroke-width="4" transform="translate(216 372)">
						<path id="8-sp-(0.5-em)" d="M0 2h8"/>
					</g>
					<g id="_Spec-/-8-sp-(0.5-em)" stroke="#50E3C2" stroke-width="4" transform="translate(216 412)">
						<path id="8-sp-(0.5-em)" d="M0 2h8"/>
					</g>
					<g id="_Spec-/-16-sp-(1-em)" stroke="#D0021B" stroke-width="4" transform="rotate(90 -90 296)">
						<path id="16-sp-(1-em)" d="M0 2h16"/>
					</g>
					<text id="`vertical-align:-mid" fill="#C70070" font-family="Lato-Regular, Lato, sans-serif" font-size="12" font-weight="normal">
						<tspan x="381" y="379">`vertical-align: middle`</tspan>
					</text>
					<path id="Line-Copy-86" stroke="#50E3C2" stroke-dasharray="1 3" stroke-linecap="square" d="M173 356.5h202"/>
					<path id="Line-Copy-85" stroke="#50E3C2" stroke-dasharray="1 3" stroke-linecap="square" d="M173 391.5h202"/>
					<path id="Line" fill="#979797" fill-rule="nonzero" d="M371 392.014v-1h4V357h-4v-1h9v1h-4v34.014h4v1h-9z"/>
				</g>
			</g>
			<text id="Label" fill="#222" font-family="HelveticaNeue, Helvetica Neue, sans-serif" font-size="16" font-weight="normal" transform="translate(5232 591.5)">
				<tspan x="0" y="15">Checkbox group label</tspan>
			</text>
		</g>
	</g>
</svg>
